svg/u1f54d.svg

<svg viewBox="0 0 128 128" xmlns="http://www.w3.org/2000/svg">
  <path d="M13.63,58.55c-1.64,0.09-2.24,0.89-2.27,5.58c-0.02,2.76,0.26,56.44,0.18,57.65 c-0.11,1.65,1.13,2.16,2.85,2.15c0.27,0,99.57-0.18,99.78-0.17c1.21,0.01,1.3-0.95,1.38-2.59c0.09-1.64,0.96-60.95,0.96-61.9 c0-0.95,0-1.73-1.73-1.81c-0.46-0.02-2.29,0.05-4.84-0.03c-3.29-0.11-5.35-3.05-9.09-3.16c-4.35-0.14-10.18,2.56-10.18,2.56 L69.31,30.02c0,0-0.01-6.39-0.15-8.64c-0.17-2.76-2.16-4.49-5.18-4.41c-3.28,0.09-5.2,1.9-5.27,4.58c-0.09,3.11-0.17,8.21-0.17,8.21 L36.42,58.02l-8.72,3.27c0,0-5.37-2.7-9.87-2.73C15.73,58.53,14,58.53,13.63,58.55z" fill="#875B52"/>
  <path d="M16.25,28.04l10.74,4.84l9.73-4.95c0,0-2.19-2.65-2.14-2.99c0.06-0.34,3.25-1.73,3.2-6.91 C37.72,11.6,29.27,3.82,26.8,3.82S15.57,11.34,15.57,17.7c0,4.89,2.97,7.21,2.97,7.72C18.54,25.92,16.25,28.04,16.25,28.04z" fill="#875B52"/>
  <path d="M90.64,27.93c0,0,2.58-2.65,2.58-3.06c0-1.01-3.55-2.03-3.25-7.97c0.29-5.8,8.67-13.44,11.13-13.39 c2.57,0.05,10.98,8.41,10.83,13.9c-0.15,5.49-3.08,7.13-3.03,7.75c0.05,0.62,2.41,2.57,2.41,2.57s-12.67,6.52-12.72,6.36 C98.54,33.93,90.64,27.93,90.64,27.93z" fill="#875B52"/>
  <path d="M35.8,67.91c0,0,27.12-34.68,28.03-34.68c0.91,0,27.51,32.47,27.51,32.47l0.52,27.24l-56.32-1.98 L35.8,67.91z" fill="#E4C5B0"/>
  <path d="M16.42,123.94l-0.18-95.89l20.46-0.11c0,0,0.29,60.38,0.68,60.64c0.4,0.26,52.37,0.4,52.76,0 c0.4-0.4,0.48-60.65,0.48-60.65l20.68-0.21l-0.57,96.07L16.42,123.94z" fill="#B79277"/>
  <polygon points="20.12,62.87 33.47,62.87 33.47,94.88 19.87,94.88 " fill="#E4C5B0"/>
  <rect height="32.76" fill="#E4C5B0" width="13.1" x="94.53" y="60.52"/>
  <polygon points="90.65,30.99 111.32,30.97 111.14,56.92 90.55,56.69 " fill="#E4C5B0"/>
  <polygon points="16.26,30.96 36.72,30.93 36.9,57.43 16.31,57.58 " fill="#E4C5B0"/>
  <path d="M24.53,51.6V36.61h4.9V51.5C29.42,51.5,24.63,51.7,24.53,51.6z" fill="#69769C"/>
  <polygon points="24.55,71.07 29.46,70.94 29.46,86.14 24.48,86.14 " fill="#69769C"/>
  <polygon points="98.91,35.38 103.89,35.38 103.89,50.7 98.85,50.7 " fill="#69769C"/>
  <path d="M98.78,68.74h4.72v15.13h-4.98C98.53,83.88,98.98,68.74,98.78,68.74z" fill="#69769C"/>
  <path d="M38.03,123.89c0,0,0.03-20.01,0.11-22.6c0.07-2.24,1.26-6.99,7.41-6.99c6.01,0,7.06,4.41,7.06,7.2 c0,2.24,0.03,22.42,0.03,22.42L38.03,123.89z" fill="#865C50"/>
  <path d="M57.41,123.83c0,0-0.22-19.6-0.13-22.33c0.14-3.92,2.18-7.46,7.15-7.59c5.31-0.14,7.54,3.54,7.68,7.1 s0.19,22.82,0.19,22.82S57.41,123.8,57.41,123.83z" fill="#865C50"/>
  <path d="M76.77,123.83c0,0-0.07-20.21-0.07-22.51c0-2.8,2.1-7.27,6.99-7.27c5.31,0,7.34,4.06,7.34,7.34 s0.04,22.44,0.04,22.44H76.77z" fill="#865C50"/>
  <path d="M63.44,50.34c-9.04,0.15-17.31,6.61-17.4,18c-0.08,10.18,7.82,17.4,18,17.55 c11.32,0.17,17.93-7.98,18-18.08C82.13,58.16,75.14,50.14,63.44,50.34z" fill="#504644"/>
  <path d="M65.39,84.69c-0.31,0.56-1.26,0.63-1.59,0.08L49.29,61.35c-0.65-1.21-0.13-2.69,0.35-2.68 l27.85,0.13c0.5,0,1.5,0.77,0.56,2.95L65.39,84.69z M54.02,61.36l10.49,17.33l9.59-17.23L54.02,61.36z" fill="#FF8C02"/>
  <path d="M49.14,76.07l14.8-23.23l14.78,23.07c0.19,0.32,0.38,1.6-0.69,1.64l-28,0.21 C48.89,77.57,48.97,76.37,49.14,76.07z M63.95,56.76L53.94,73.84l20.29-0.06L63.95,56.76z" fill="#FF8C02"/>
  <path d="M64.09,83.26L49.35,59.46c-0.25-0.4,0.04-0.92,0.51-0.91l27.75,0.17c0.5,0,0.81,0.54,0.57,0.97 L65.13,83.23C64.91,83.64,64.33,83.65,64.09,83.26z M52.39,60.57l12.15,19.62l10.8-19.47L52.39,60.57z" fill="#FFD324"/>
  <path d="M49.19,75.91l14.27-24.2c0.18-0.3,0.62-0.3,0.8,0l14.33,24.02c0.18,0.31-0.04,0.7-0.39,0.7 l-28.6,0.18C49.23,76.61,49.01,76.22,49.19,75.91z M63.47,55.63L52.7,73.89c-0.18,0.31,0.04,0.7,0.4,0.7l21.58-0.13 c0.36,0,0.58-0.39,0.39-0.7L64.26,55.63C64.08,55.33,63.65,55.33,63.47,55.63z" fill="#FFD324"/>
</svg>

<svg viewBox="0 0 128 128" xmlns="http://www.w3.org/2000/svg">
  <defs/>
  <path d="M13.63,58.55 C11.99,58.64 11.39,59.44 11.36,64.13 C11.34,66.89 11.62,120.57 11.54,121.78 C11.43,123.43 12.67,123.94 14.39,123.93 C14.66,123.93 113.96,123.75 114.17,123.76 C115.38,123.77 115.47,122.81 115.55,121.17 C115.64,119.53 116.51,60.22 116.51,59.27 C116.51,58.32 116.51,57.54 114.78,57.46 C114.32,57.44 112.49,57.51 109.94,57.43 C106.65,57.32 104.59,54.38 100.85,54.27 C96.5,54.13 90.67,56.83 90.67,56.83 L69.31,30.02 C69.31,30.02 69.3,23.63 69.16,21.38 C68.99,18.62 67,16.89 63.98,16.97 C60.7,17.06 58.78,18.87 58.71,21.55 C58.62,24.66 58.54,29.76 58.54,29.76 L36.42,58.02 L27.7,61.29 C27.7,61.29 22.33,58.59 17.83,58.56 C15.73,58.53 14,58.53 13.63,58.55 Z" fill="#875B52"/>
  <path d="M16.25,28.04 L26.99,32.88 L36.72,27.93 C36.72,27.93 34.53,25.28 34.58,24.94 C34.64,24.6 37.83,23.21 37.78,18.03 C37.72,11.6 29.27,3.82 26.8,3.82 C24.33,3.82 15.57,11.34 15.57,17.7 C15.57,22.59 18.54,24.91 18.54,25.42 C18.54,25.92 16.25,28.04 16.25,28.04 Z" fill="#875B52"/>
  <path d="M90.64,27.93 C90.64,27.93 93.22,25.28 93.22,24.87 C93.22,23.86 89.67,22.84 89.97,16.9 C90.26,11.1 98.64,3.46 101.1,3.51 C103.67,3.56 112.08,11.92 111.93,17.41 C111.78,22.9 108.85,24.54 108.9,25.16 C108.95,25.78 111.31,27.73 111.31,27.73 C111.31,27.73 98.64,34.25 98.59,34.09 C98.54,33.93 90.64,27.93 90.64,27.93 Z" fill="#875B52"/>
  <path d="M35.8,67.91 C35.8,67.91 62.92,33.23 63.83,33.23 C64.74,33.23 91.34,65.7 91.34,65.7 L91.86,92.94 L35.54,90.96 L35.8,67.91 Z" fill="#E4C5B0"/>
  <path d="M16.42,123.94 L16.24,28.05 L36.7,27.94 C36.7,27.94 36.99,88.32 37.38,88.58 C37.78,88.84 89.75,88.98 90.14,88.58 C90.54,88.18 90.62,27.93 90.62,27.93 L111.3,27.72 L110.73,123.79 L16.42,123.94 Z" fill="#B79277"/>
  <path d="M20.12,62.87 L33.47,62.87 L33.47,94.88 L19.87,94.88 Z" fill="#E4C5B0"/>
  <path d="M94.53,60.52 L107.63,60.52 L107.63,93.28 L94.53,93.28 L94.53,60.52 Z" fill="#E4C5B0"/>
  <path d="M90.65,30.99 L111.32,30.97 L111.14,56.92 L90.55,56.69 Z" fill="#E4C5B0"/>
  <path d="M16.26,30.96 L36.72,30.93 L36.9,57.43 L16.31,57.58 Z" fill="#E4C5B0"/>
  <path d="M24.53,51.6 L24.53,36.61 L29.43,36.61 L29.43,51.5 C29.42,51.5 24.63,51.7 24.53,51.6 Z" fill="#69769C"/>
  <path d="M24.55,71.07 L29.46,70.94 L29.46,86.14 L24.48,86.14 Z" fill="#69769C"/>
  <path d="M98.91,35.38 L103.89,35.38 L103.89,50.7 L98.85,50.7 Z" fill="#69769C"/>
  <path d="M98.78,68.74 L103.5,68.74 L103.5,83.87 L98.52,83.87 C98.53,83.88 98.98,68.74 98.78,68.74 Z" fill="#69769C"/>
  <path d="M38.03,123.89 C38.03,123.89 38.06,103.88 38.14,101.29 C38.21,99.05 39.4,94.3 45.55,94.3 C51.56,94.3 52.61,98.71 52.61,101.5 C52.61,103.74 52.64,123.92 52.64,123.92 L38.03,123.89 Z" fill="#865C50"/>
  <path d="M57.41,123.83 C57.41,123.83 57.19,104.23 57.28,101.5 C57.42,97.58 59.46,94.04 64.43,93.91 C69.74,93.77 71.97,97.45 72.11,101.01 C72.25,104.57 72.3,123.83 72.3,123.83 C72.3,123.83 57.41,123.8 57.41,123.83 Z" fill="#865C50"/>
  <path d="M76.77,123.83 C76.77,123.83 76.7,103.62 76.7,101.32 C76.7,98.52 78.8,94.05 83.69,94.05 C89,94.05 91.03,98.11 91.03,101.39 C91.03,104.67 91.07,123.83 91.07,123.83 L76.77,123.83 Z" fill="#865C50"/>
  <path d="M63.44,50.34 C54.4,50.49 46.13,56.95 46.04,68.34 C45.96,78.52 53.86,85.74 64.04,85.89 C75.36,86.06 81.97,77.91 82.04,67.81 C82.13,58.16 75.14,50.14 63.44,50.34 Z" fill="#504644"/>
  <path d="M65.39,84.69 C65.08,85.25 64.13,85.32 63.8,84.77 L49.29,61.35 C48.64,60.14 49.16,58.66 49.64,58.67 L77.49,58.8 C77.99,58.8 78.99,59.57 78.05,61.75 L65.39,84.69 Z M54.02,61.36 L64.51,78.69 L74.1,61.46 L54.02,61.36 Z" fill="#FF8C02"/>
  <path d="M49.14,76.07 L63.94,52.84 L78.72,75.91 C78.91,76.23 79.1,77.51 78.03,77.55 L50.03,77.76 C48.89,77.57 48.97,76.37 49.14,76.07 Z M63.95,56.76 L53.94,73.84 L74.23,73.78 L63.95,56.76 Z" fill="#FF8C02"/>
  <path d="M64.09,83.26 L49.35,59.46 C49.1,59.06 49.39,58.54 49.86,58.55 L77.61,58.72 C78.11,58.72 78.42,59.26 78.18,59.69 L65.13,83.23 C64.91,83.64 64.33,83.65 64.09,83.26 Z M52.39,60.57 L64.54,80.19 L75.34,60.72 L52.39,60.57 Z" fill="#FFD324"/>
  <path d="M49.19,75.91 L63.46,51.71 C63.64,51.41 64.08,51.41 64.26,51.71 L78.59,75.73 C78.77,76.04 78.55,76.43 78.2,76.43 L49.6,76.61 C49.23,76.61 49.01,76.22 49.19,75.91 Z M63.47,55.63 L52.7,73.89 C52.52,74.2 52.74,74.59 53.1,74.59 L74.68,74.46 C75.04,74.46 75.26,74.07 75.07,73.76 L64.26,55.63 C64.08,55.33 63.65,55.33 63.47,55.63 Z" fill="#FFD324"/>
</svg>
